src/images/plus.svg

<svg xmlns="http://www.w3.org/2000/svg" viewBox="0 0 448 512"><!-- Font Awesome Free 5.15.4 by @fontawesome - https://fontawesome.com License - https://fontawesome.com/license/free (Icons: CC BY 4.0, Fonts: SIL OFL 1.1, Code: MIT License) --><path d="M416 208H272V64c0-17.67-14.33-32-32-32h-32c-17.67 0-32 14.33-32 32v144H32c-17.67 0-32 14.33-32 32v32c0 17.67 14.33 32 32 32h144v144c0 17.67 14.33 32 32 32h32c17.67 0 32-14.33 32-32V304h144c17.67 0 32-14.33 32-32v-32c0-17.67-14.33-32-32-32z"/></svg>

<svg xmlns="http://www.w3.org/2000/svg" width="448" height="448" viewBox="0 0 448 448">
  <path id="plus" d="M416,208H272V64a32,32,0,0,0-32-32H208a32,32,0,0,0-32,32V208H32A32,32,0,0,0,0,240v32a32,32,0,0,0,32,32H176V448a32,32,0,0,0,32,32h32a32,32,0,0,0,32-32V304H416a32,32,0,0,0,32-32V240A32,32,0,0,0,416,208Z" transform="translate(0 -32)" fill="#fff"/>
</svg>
